X:17
T:March in the 15th Regt. JJo.017
T: 15th Regt March. JJo.017
S:J.Jones MS,1801,N.Shrops.
N:Amuch grander arrangement for 3 voices found
N:in the MS of John Clews, Stoke on Tern, N. Shropshire.
Z:Neil Brookes 2006
M:4/4
L:1/8
Q:1/2=80
K:C
c2|g2g>gg2(3agf|e2e>ee2(3cde|d2f>a g>fe>d|c2c>cc2 c’>g|!
a2a>aa2c’a|g2g>gg2e>g|f>df>f e>ce>e|d2d>dd2::!
g>e|d2d>dd2 g>e|e2e>ee2(3efg|a2c’c’c’2a2|g2c’c’c’2(3agf|!
(3efg (3abc’ g>fe>d|c>dee e>fgg|g2(3agf e2d2|c2c>cc2:|

